static/img/icon-forward-next.svg

<svg fill="none" height="18" viewBox="0 0 18 18" width="18" xmlns="http://www.w3.org/2000/svg"><path d="m15.1867 9c0-.08186-.0175-.15964-.0489-.22982l-.0919-.14273c-.0077-.00878-.0158-.01738-.0242-.02578l-5.43669-5.43667c-.22-.22-.57668-.22-.79667 0-.21999.21999-.21999.57667 0 .79666l4.47496 4.47501h-9.69997c-.31112 0-.56333.25221-.56333.56333s.25221.56333.56333.56333h9.70007l-4.47506 4.47497c-.21999.22-.21999.5767 0 .7967s.57668.22.79667 0l5.43669-5.43666.0012-.0012c.0518-.05218.0914-.11198.1186-.17578.0291-.06796.0452-.14278.0452-.22136z" fill="#038899"/></svg>

<svg width="18" height="18" viewBox="0 0 18 18" fill="none" xmlns="http://www.w3.org/2000/svg">
<path d="M15.1867 9C15.1867 8.91814 15.1692 8.84036 15.1378 8.77018L15.0459 8.62745C15.0382 8.61867 15.0301 8.61007 15.0217 8.60167L9.58501 3.165C9.36501 2.945 9.00833 2.945 8.78834 3.165C8.56835 3.38499 8.56835 3.74167 8.78834 3.96166L13.2633 8.43667H3.56333C3.25221 8.43667 3 8.68888 3 9C3 9.31112 3.25221 9.56333 3.56333 9.56333H13.2634L8.78834 14.0383C8.56835 14.2583 8.56835 14.615 8.78834 14.835C9.00833 15.055 9.36502 15.055 9.58501 14.835L15.0217 9.39834L15.0229 9.39714C15.0747 9.34496 15.1143 9.28516 15.1415 9.22136C15.1706 9.1534 15.1867 9.07858 15.1867 9Z" fill="#038899"/>
</svg>
